src/WeatherTwentyOne/Resources/Images/fluent_weather_snowflake_20_filled.svg

<svg width="41" height="40" viewBox="0 0 41 40" fill="none" xmlns="http://www.w3.org/2000/svg">
<path d="M20.3126 4C20.6811 4.00008 21.037 4.13163 21.3145 4.37029C21.592 4.60894 21.7722 4.93853 21.8218 5.298L21.8361 5.502V10.246L24.8951 7.6C25.2003 7.35136 25.5919 7.22955 25.9868 7.26041C26.3817 7.29126 26.7488 7.47234 27.0104 7.76526C27.2719 8.05818 27.4073 8.43989 27.3879 8.82945C27.3684 9.21902 27.1956 9.58579 26.9061 9.852L21.8361 14.24V18.5H26.1646L30.6232 13.508C30.8643 13.238 31.1958 13.0622 31.5575 13.0126C31.9191 12.9631 32.2868 13.0431 32.5936 13.238L32.7743 13.372C33.0486 13.6093 33.2271 13.9358 33.2774 14.2918C33.3278 14.6479 33.2465 15.0099 33.0486 15.312L32.9125 15.488L30.2211 18.498L35.0412 18.5C35.4093 18.5 35.765 18.6313 36.0425 18.8695C36.3199 19.1078 36.5004 19.4369 36.5504 19.796L36.5626 20C36.5626 20.3625 36.4293 20.7127 36.1873 20.9859C35.9453 21.259 35.6111 21.4367 35.2464 21.486L35.0392 21.5H30.215L32.9064 24.516C33.1479 24.786 33.2829 25.1325 33.2866 25.4923C33.2904 25.8521 33.1626 26.2012 32.9267 26.476L32.7682 26.634C32.494 26.8719 32.1421 27.0047 31.7767 27.0084C31.4113 27.0121 31.0567 26.8863 30.7776 26.654L30.6172 26.496L26.1586 21.5H21.832L21.834 25.762L26.9081 30.152C27.1826 30.3891 27.3616 30.7154 27.4123 31.0715C27.463 31.4275 27.3821 31.7897 27.1843 32.092L27.0482 32.268C26.8075 32.5383 26.4761 32.7145 26.1144 32.7644C25.7528 32.8144 25.3849 32.7347 25.0779 32.54L24.8972 32.406L21.832 29.754V34.502C21.8319 34.8648 21.6983 35.2152 21.4559 35.4885C21.2135 35.7617 20.8788 35.9391 20.5137 35.988L20.3065 36C19.9384 36 19.5827 35.8687 19.3053 35.6305C19.0278 35.3922 18.8474 35.0631 18.7973 34.704L18.7831 34.5V29.754L15.7281 32.402C15.4229 32.6506 15.0313 32.7724 14.6364 32.7416C14.2415 32.7107 13.8744 32.5297 13.6128 32.2367C13.3513 31.9438 13.2159 31.5621 13.2353 31.1725C13.2548 30.783 13.4276 30.4162 13.7172 30.15L18.7851 25.76V21.5H14.8181L10.0061 26.896C9.73939 27.1949 9.36305 27.3773 8.95984 27.4029C8.55662 27.4286 8.15955 27.2956 7.85598 27.033C7.55241 26.7704 7.36721 26.3999 7.34112 26.0029C7.31502 25.6059 7.45017 25.2149 7.71684 24.916L10.7637 21.502H5.58606C5.21762 21.5019 4.86169 21.3704 4.5842 21.1317C4.3067 20.8931 4.12646 20.5635 4.07684 20.204L4.06262 20C4.06264 19.6375 4.19596 19.2873 4.43793 19.0141C4.6799 18.741 5.01415 18.5633 5.37887 18.514L5.58606 18.5H10.0426L7.71887 15.886C7.58683 15.738 7.48569 15.5658 7.42122 15.3794C7.35676 15.1929 7.33023 14.9957 7.34315 14.7991C7.35607 14.6025 7.40819 14.4104 7.49653 14.2336C7.58487 14.0569 7.7077 13.899 7.85801 13.769C8.00832 13.639 8.18317 13.5394 8.37257 13.4759C8.56197 13.4125 8.76221 13.3863 8.96187 13.3991C9.16152 13.4118 9.35667 13.4631 9.53619 13.5501C9.7157 13.6371 9.87605 13.758 10.0081 13.906L14.097 18.5H18.7851V14.24L13.7172 9.846C13.4429 9.60865 13.2644 9.28222 13.2141 8.92615C13.1637 8.57008 13.2449 8.20806 13.4429 7.906L13.579 7.73C13.8201 7.45999 14.1516 7.2842 14.5132 7.23464C14.8749 7.18508 15.2426 7.26506 15.5493 7.46L15.7281 7.594L18.7892 10.244V5.5C18.7894 5.17131 18.8992 4.85178 19.1018 4.59053C19.3043 4.32928 19.5885 4.14077 19.9104 4.054L20.1075 4.014L20.3126 4Z" fill="url(#paint0_linear)"/>
<defs>
<linearGradient id="paint0_linear" x1="9.61245" y1="9.78541" x2="28.1078" y2="27.3943" gradientUnits="userSpaceOnUse">
<stop offset="0.10243" stop-color="#28C2D1"/>
<stop offset="0.925347" stop-color="#4931DE"/>
</linearGradient>
</defs>
</svg>

<svg width="41" height="40" fill="none" xmlns="http://www.w3.org/2000/svg">
    <path
        d="M20.313 4c.368 0 .724.132 1.002.37.277.239.457.569.507.928l.014.204v4.744l3.06-2.646a1.54 1.54 0 012.114.165 1.486 1.486 0 01-.104 2.087l-5.07 4.388v4.26h4.329l4.458-4.992a1.543 1.543 0 011.97-.27l.181.134a1.482 1.482 0 01.274 1.94l-.136.176-2.69 3.01 4.82.002c.367 0 .723.131 1 .37.278.238.458.567.508.926l.013.204c0 .363-.134.713-.376.986a1.53 1.53 0 01-.94.5l-.208.014h-4.824l2.691 3.016a1.487 1.487 0 01.02 1.96l-.158.158a1.537 1.537 0 01-1.99.02l-.16-.158-4.46-4.996h-4.326l.002 4.262 5.074 4.39a1.481 1.481 0 01.276 1.94l-.136.176a1.542 1.542 0 01-1.97.272l-.18-.134-3.066-2.652v4.748c0 .363-.134.713-.376.986a1.53 1.53 0 01-.942.5l-.207.012c-.369 0-.724-.131-1.002-.37a1.494 1.494 0 01-.508-.926l-.014-.204v-4.746l-3.055 2.648a1.54 1.54 0 01-2.115-.165 1.486 1.486 0 01.104-2.087l5.068-4.39V21.5h-3.967l-4.812 5.396a1.538 1.538 0 01-2.15.137 1.486 1.486 0 01-.14-2.117l3.048-3.414H5.586c-.368 0-.724-.132-1.002-.37a1.493 1.493 0 01-.507-.928L4.063 20c0-.363.133-.713.375-.986a1.53 1.53 0 01.94-.5l.208-.014h4.457l-2.324-2.614a1.495 1.495 0 01-.376-1.087 1.482 1.482 0 01.515-1.03 1.53 1.53 0 011.104-.37 1.541 1.541 0 011.046.507l4.089 4.594h4.688v-4.26l-5.068-4.394a1.481 1.481 0 01-.274-1.94l.136-.176a1.542 1.542 0 011.97-.27l.18.134 3.06 2.65V5.5c0-.329.11-.648.313-.91.202-.26.486-.45.808-.536l.198-.04.205-.014z"
        fill="url(#prefix__paint0_linear)" />
    <defs>
        <linearGradient id="prefix__paint0_linear" x1="9.612" y1="9.785" x2="28.108" y2="27.394"
            gradientUnits="userSpaceOnUse">
            <stop offset=".102" stop-color="#28C2D1" />
            <stop offset=".925" stop-color="#4931DE" />
        </linearGradient>
    </defs>
</svg>
